!!!COM:	Martini, Johannes
!!!CDT:	~1440///-~1497//
!!!OTL:	Fortuna desperata
!!!AGN:	Song; Chanson
!!!SCT:	Mar3006
!!!SCA:	Mar3006
!!!voices:	4
**kern	**kern	**kern	**kern
*staff4	*staff3	*staff2	*staff1
*Ivox	*Ivox	*Ivox	*Ivox
*I"Bassus	*I"Tenor	*I"Altus	*I"Cantus
*I'B	*I'T	*I'A	*I'Cn
*clefF4	*clefGv2	*clefGv2	*clefG2
*k[b-]	*k[b-]	*k[b-]	*k[]
*M2/1	*M2/1	*M2/1	*M2/1
*met(C|)	*met(C|)	*met(C|)	*met(C|)
=1-	=1-	=1-	=1-
!!LO:TX:Z=8:t=Cantus from Felice, "Fortuna desperata"; bassus ostinato
2r	1r	0r	0f
2FF/	.	.	.
2.FF/	2r	.	.
.	2F/	.	.
4GG/	.	.	.
=2	=2	=2	=2
2.AA/	2.F/	0r	1f
4BB-/	4G/	.	.
2.C/	2.A/	.	1e
4FF/	4B-\	.	.
=3	=3	=3	=3
2FF/	2.c\	0r	0c
2FF/	.	.	.
.	4F/	.	.
2.FF/	2F/	.	.
.	4E/	.	.
4GG/	4D/	.	.
=4	=4	=4	=4
2.AA/	2C/	0r	1r
.	1F	.	.
4BB-/	.	.	.
2.C/	.	.	1g
.	2E/	.	.
4FF/	.	.	.
=5	=5	=5	=5
2FF/	2.F/	1r	0a
2FF/	.	.	.
.	4E/	.	.
2.FF/	1C	2r	.
.	.	2F/	.
4GG/	.	.	.
=6	=6	=6	=6
2.AA/	2r	2.F/	1a
.	2c\	.	.
4BB-/	.	4G/	.
2.C/	2.c\	2.A/	1a
4FF/	4B-\	4B-\	.
=7	=7	=7	=7
1FF	2.A/	2.c\	0a
.	4B-\	4F/	.
1r	2c\	2F/	.
.	2d\	2B-\	.
=8	=8	=8	=8
0r	2.G/	2.B-\	0g
.	4A/	4c\	.
.	2B-\	2.d\	.
.	2c\	.	.
.	.	4e\	.
=9	=9	=9	=9
2r	1F	2.f\	[0f
2BB-/	.	.	.
.	.	4B-\	.
2.BB-/	2r	1B-	.
.	2BB-/	.	.
4C/	.	.	.
=10	=10	=10	=10
2.D\	2.BB-/	2r	1f]
.	.	1B-	.
4E\	4C/	.	.
2.F\	2.D/	.	1d
.	.	2A/	.
4BB-/	4E/	.	.
=11	=11	=11	=11
1BB-	2.F/	2B-\	0d
.	.	2.f\	.
.	4BB-/	.	.
1r	1BB-	.	.
.	.	4e\	.
.	.	[2d\	.
=12	=12	=12	=12
0r	2C/	4d\]	1e
.	.	4c\	.
.	2E/	1c	.
.	2F/	.	1d
.	2G/	2Bni\	.
=13	=13	=13	=13
2r	1C	2c\	1c
2FF/	.	2.A/	.
2.FF/	2r	.	[1f
.	.	4B-\	.
.	2F/	2c\	.
4GG/	.	.	.
=14	=14	=14	=14
2.AA/	2.F/	2.C/	1f]
4BB-/	4G/	4D/	.
2.C/	2.A/	4E/	1e
.	.	4F/	.
.	.	4G/	.
4FF/	4B-\	4A/	.
=15	=15	=15	=15
2FF/	2.c\	2F/	0f
2FF/	.	4E/	.
.	4F/	4D/	.
2.FF/	[1F	2C/	.
.	.	2F/	.
4GG/	.	.	.
=16	=16	=16	=16
2.AA/	1F]	2.F/	0r
4BB-/	.	4G/	.
2.C/	1E	2.A/	.
4FF/	.	4B-\	.
=17	=17	=17	=17
2.FF/	0A	2.c\	0cc
4GG/	.	4F/	.
2.AA/	.	2F/	.
.	.	[2f\	.
4BB-/	.	.	.
=18	=18	=18	=18
2.C/	1G	2f\]	1cc
.	.	2e\	.
4FF/	.	.	.
1FF	1F	1f	1a
=19	=19	=19	=19
0r	1G	2d\	0b
.	.	2.g\	.
.	2E/	.	.
.	.	4f\	.
.	[2G/	[2d\	.
=20	=20	=20	=20
1r	2G/]	4d\]	1dd
.	.	4e\	.
.	2.F/	2.f\	.
2r	.	.	1cc
.	4G/	4e\	.
2F\	[2A/	2f\	.
=21	=21	=21	=21
2.F\	4A/]	1c	0a
.	4G/	.	.
.	4F/	.	.
4G\	4E/	.	.
2.A\	2F/	1r	.
.	2D/	.	.
4B-\	.	.	.
=22	=22	=22	=22
2.c\	2C/	2c\	1r
.	1F	2.c\	.
4F\	.	.	.
2F\	.	.	1a
.	.	4d\	.
2C/	2E/	[2e\	.
=23	=23	=23	=23
2.C/	1G	4e\]	1.g
.	.	4f\	.
.	.	2.g\	.
4D\	.	.	.
2.E\	2.C/	.	.
.	.	4c\	.
.	.	[2c\	2f/
4F\	4D/	.	.
=24	=24	=24	=24
2.G\	2.E/	2c\]	1e
.	.	2B-\	.
4C/	4F/	.	.
2C/	1G	2.c\	1e
2FF/	.	.	.
.	.	4B-\	.
=25	=25	=25	=25
2.FF/	2F/	4A/	1f
.	.	4G/	.
.	2.A/	1c	.
4GG/	.	.	.
2.AA/	.	.	1r
.	4G/	.	.
.	[2F/	4B-\	.
4BB-/	.	4A/	.
=26	=26	=26	=26
2.C/	2F/]	1G	1g
.	2E/	.	.
4FF/	.	.	.
1FF	2.F/	1F	1a
.	4BB-/	.	.
=27	=27	=27	=27
1r	2.BB-/	2r	[0b-
.	.	2B-\	.
.	4C/	.	.
2r	2.D/	2.B-\	.
2BB-/	.	.	.
.	4E/	4c\	.
=28	=28	=28	=28
2.BB-/	2F/	2.d\	1b-]
.	2BB-/	.	.
4C/	.	4e\	.
2.D\	2F/	2.f\	1a
.	2G/	.	.
4E\	.	4e\	.
=29	=29	=29	=29
2.F\	1A	2c\	1a
.	.	2f\	.
4BB-/	.	.	.
1BB-	2B-\	2d\	1f
.	[2d\	[2f\	.
=30	=30	=30	=30
0r	4d\]	4f\]	0g
.	4c\	4e\	.
.	4B-\	4d\	.
.	4A/	4c\	.
.	2B-\	2d\	.
.	4A/	4c\	.
.	4G/	4B-\	.
=31	=31	=31	=31
2r	2F/	1.c	1.a
2F\	2.A/	.	.
2.F\	.	.	.
.	4G/	.	.
.	4F/	[2A/	2b\
4G\	4E/	.	.
=32	=32	=32	=32
2.A\	2F/	2A/]	1cc
.	4E/	4G/	.
4B-\	4D/	4F/	.
2.c\	2C/	1G	1cc
.	2E/	.	.
4F\	.	.	.
=33	=33	=33	=33
1F	2D/	1.A	1dd
.	2F/	.	.
1r	2F/	.	2cc\
.	2G/	2B-\	[2b-\
=34	=34	=34	=34
2r	2.A/	1c	2b-\]
2FF/	.	.	2a/
.	4B-\	.	.
2.FF/	2.c\	2F/	[1a
.	.	[2c\	.
4GG/	4F/	.	.
=35	=35	=35	=35
2.AA/	1F	2c\]	1a]
.	.	2d\	.
4BB-/	.	.	.
2.C/	2r	1e	1g
.	2E/	.	.
4FF/	.	.	.
=36	=36	=36	=36
2FF/	2F/	1c	0a
2FF/	4E/	.	.
.	4D/	.	.
2.FF/	2C/	2r	.
.	2D/	2F/	.
4GG/	.	.	.
=37	=37	=37	=37
2.AA/	2C/	2.F/	0r
.	1F	.	.
4BB-/	.	4G/	.
2.C/	.	2.A/	.
.	2E/	.	.
4FF/	.	4B-\	.
=38	=38	=38	=38
1FF	2F/	2.c\	1.a
.	2.c\	.	.
.	.	4F/	.
2.FF/	.	2F/	.
.	4B-\	.	.
.	[2A/	2r	4g/
4GG/	.	.	4f/
=39	=39	=39	=39
2.AA/	2A/]	2c\	0e
.	4G/	2d\	.
4BB-/	4F/	.	.
1C	1E	4e\	.
.	.	4f\	.
.	.	2g\	.
=40	=40	=40	=40
2.FF/	2r	2f\	0c
.	2.c\	2.a\	.
4GG/	.	.	.
2.AA/	.	.	.
.	4B-\	4g\	.
.	2A/	[2f\	.
4BB-/	.	.	.
=41	=41	=41	=41
2.C/	1G	2f\]	1r
.	.	2e\	.
4FF/	.	.	.
1FF	1F	2f\	1c
.	.	2F/	.
=42	=42	=42	=42
2r	0D	2.F/	1d
2F\	.	.	.
.	.	4G/	.
2.F\	.	2.A/	1f
4G\	.	4B-\	.
=43	=43	=43	=43
2.A\	1r	2.c\	0e
4B-\	.	4B-\	.
2.c\	1C	1G	.
4F\	.	.	.
=44	=44	=44	=44
2.F\	2D/	2r	1f
.	2F/	2.c\	.
4C/	.	.	.
2.C/	2.E/	.	[1g
.	.	4d\	.
.	.	[2e\	.
4D\	4C/	.	.
=45	=45	=45	=45
2.E\	2.C/	4e\]	2g/]
.	.	4d\	.
.	.	1c	2f/
4F\	4D/	.	.
2.G\	2.E/	.	2e/
.	.	2B-\	2d/
4C/	4F/	.	.
=46	=46	=46	=46
1C	2.G/	1.c	0e
.	4C/	.	.
1r	1C	.	.
.	.	4B-\	.
.	.	4A/	.
=47	=47	=47	=47
1r	1G	2B-\	1d
.	.	4A/	.
.	.	4G/	.
2r	1A	1F	[1f
2FF/	.	.	.
=48	=48	=48	=48
2.FF/	2r	0r	2f/]
.	2F/	.	2e/
4GG/	.	.	.
2.AA/	2.F/	.	1d
4BB-/	4G/	.	.
=49	=49	=49	=49
2.C/	2.A/	2r	0c
.	.	2G/	.
4FF/	4B-\	.	.
1FF	2.c\	2A/	.
.	.	[2c\	.
.	4F/	.	.
=50	=50	=50	=50
0r	2F/	2c\]	0d
.	2E/	4Bni\	.
.	.	4A/	.
.	1D	1Bni	.
=51	=51	=51	=51
1r	2C/	4c\	0e
.	.	4d\	.
.	2.c\	4e\	.
.	.	4f\	.
2r	.	2g\	.
.	4B-\	.	.
2F\	[2A/	[2c\	.
=52	=52	=52	=52
2.F\	4A/]	2c\]	1r
.	4G/	.	.
.	2.F/	2d\	.
4G\	.	.	.
2.A\	.	2c\	1f
.	4E/	.	.
.	2D/	[2f\	.
4B-\	.	.	.
=53	=53	=53	=53
2.c\	1C	2f\]	1g
.	.	2e\	.
4F\	.	.	.
1F	2r	2f\	1a
.	2D/	2F/	.
=54	=54	=54	=54
0r	2BB-/	2.F/	1.b-
.	2E-i/	.	.
.	.	4G/	.
.	4D/	2.A/	.
.	4Eni/	.	.
.	4F/	.	2a/
.	4G/	4B-\	.
=55	=55	=55	=55
2r	2C/	2.c\	2g/
2FF/	2F/	.	2f/
.	.	4F/	.
2.FF/	2C/	1F	[1f
.	[2c\	.	.
4GG/	.	.	.
=56	=56	=56	=56
2.AA/	2c\]	2.c\	1f]
.	4B-\	.	.
4BB-/	4A/	4d\	.
2.C/	1G	1c	1e
4FF/	.	.	.
=57	=57	=57	=57
0FFl	0Fl	0Al	0fl
==	==	==	==
*-	*-	*-	*-
!!!RDF**kern: l=long note in original notation
!!!RDF**kern: i=editorial accidental
!!!ENC:	Chris Gage 10-30-2014
!!!END:	2015/03/01/
!!!EED:	Jesse Rodin
!!!EEV:	2015/03/05/
!!!ONB:	Translated from MusicXML and edited on 2015/03/05/ by Craig Sapp
!!muse2ps: C^@{COM}^i2I150v85,85,85,150Q16
